X:6753
T:the February March
O:england
R:March
N:Feb '96
M:2/4
Q:1/8=300
C:Andy Hornby
A:Lancaster
K:D
A2|\
f2gf e2dc|d4 A4|B2cd A2d2|defg e2A2|\
f2gf e2fe|d4 A4|Bcdg f2ed|d6 :|
|:d2|\
e3f gfed|f4 d2a2|gfed defg|e6 A2|\
f2gf e2fe|d4 A4|Bcdg f2ed|d6:|
W:Copyright (C) Andy Hornby


